X:145
T:Viston utan täxt.
N:Sjunges mycket som vaggvisa.
M:C
L:1/8
K:F
C|F> G A B c2 d e|f2 (3ded c2 z A|
B2 d B A2 (3cBA|G4 F2 z::A|G> F E> F G3 A|
B> B d c A3 A|G> F E> F G3 A|B> B d c A3 C|
F> G A B c2 d e|f2 (3dee c2 z A|
B2 d B A2 (3cBA|G4 F2 z:|
